X:1
T:Les Sept Paroles du Christ en Croix
T:César Franck (1822-1890)
T:1. Prologue
T:Copyright © 2007 by the Choral Public Domain Library (http://www.cpdl.org) Edition may be freely distributed, duplicated, performed, or recorded.
T:Copyright © 2007 by the Choral Public Domain Library (http://www.cpdl.org) Edition may be freely distributed, duplicated, performed, or recorded.
Z:Copyright © 2007 by the Choral Public Domain Library (http://www.cpdl.org)
Z:Edition may be freely distributed, duplicated, performed, or recorded.
%%score 1 { ( 2 3 ) | ( 4 5 6 ) }
L:1/8
Q:1/4=120
M:4/4
K:C
V:1 treble nm="Sop solo"
V:2 treble nm="P2"
V:3 treble 
V:4 bass 
V:5 bass 
V:6 bass 
V:1
 z8 | z8 | z8 | z8 | z8 | z8 | z8 | z8 | z8 | z8 | z8 | z8 | z8 | z8 | A8 | B8 | e6 d2 | c4 B4 | %18
w: ||||||||||||||O|vos,|o vos|o- mnes,|
 c2 c2 dBGF | E>F G2 G2 c>B | (B2 A2) A2 d>c | c2 B2 e2 f2 | e^d e2 =d2 d2 | dB c2 (G3 F) | %24
w: qui tran- si- * tis per|vi- * am, at- ten- di-|te _ et vi- *|de- te, si est|do- * lor si est|do- * lor sic- *|
 EFG^G A2 Bc | (e4- edAB | c4) z4 | c3 G G2 c2 | c>B B2 z2 Bc | d4- d^cd^d | e4 e^c AG | %31
w: ut _ _ _ do- lor _|me- * * * *|us.|Po- su- it me|Do- mi- ne, de- so-|la- * * * *|tam to- * ta _|
 G2 F2 dB GF | F2 _E2 G2 G2 | c2 cd (_e2 dc) | B4 z4 | e3 e d3 d | c6 c2 | f4 ed e^c | d4 z4 | %39
w: di- e, to- * ta _|di- e mae- ro-|re con- * fe- * *|ctam.|Ne vo- ca- tis|me "Na-|e- mi", "Na- e- *|mi"|
 d3 d ^ccBc | d3 e f2 fe | ed dc cB BA | ^G4 z4 | A8 | B8 | e6 d2 | c4 B4 | c2 c2 dBGF | %48
w: sed vo- ca- e me _|"Ma- * ra", sed vo-|ca- * te _ me _ "Ma- *|ra".|O|vos,|o vos|o- mnes,|qui tran- si- * tis per|
 E>F G2 G2 c>B | (B2 A2) A2 d>c | c2 B2 c2 ^c2 | d2 ^d2 !courtesy!=e2 =d2 | c2 B2 BA Bd | %53
w: vi- * am, at- ten- di-|te _ et vi- *|de- te, si est|do- * lor _|sic- ut do- * lor, _|
 cB/A/ (e2- ed) Be | A4 z4 | z8 | z8 | z8 | z8 |] %59
w: do- * * lor _ _ me- *|us.|||||
V:2
 x4 c4- | c4 c4- | c4 c4 | d2 cB A2 ^G2 | (A2 c6) | c4 c4 | c4 e4- | e4- e2 ^d2 | e4 (e2 f2 | %9
 e^c d2) (d2 e2 | dB c2 =A2 c2 | B^G A2 _BG A2- | A^GAB dcBA) | [CA]4 T[B,^G]4 | A8 | B4- B4 | %16
 e6 d2 | c4 B4 | c4 dBGF | [CE]>[DF] G2- G2 c>B | [^GB]2 A4 d>c | c2 B2 [Ee]2 x2 | e^d [Ee]2 =d4- | %23
 dB c2 G3 F | EFG^G A2 Bc | e4- edAB | [Ec]4 x4 | c8- | c2 B4- Bc | d4- d^cd^d | [Ee]4 (e3 g) | %31
 (g2 f2) (d3 f) | f2 _e2 G2 G2 | (c3 d _e2 dc) | [DGB]2 [GBg]2 [Gcf]2 [Gd]2 | [Ge]4 [Fd]4 | %36
 [Ec-]4 [A-c]4 | [Af]4 ede^c | [Fd]2 (.[FAd]2 .[FAd]2 .[FAd]2) | (d4 ^c2 Bc) | (d3 e f2) (fe) | %41
 (ed)(dc) (cB)(BA) | [E-^G]8 | E2 D2 E4 | [^FB-]4 [=FB]4 | e6 [^Gd]2 | [Ac]4 [^GB]4 | c4 dBGF | %48
 [CE]>[DF] G2- G2 c>B | [^GB]2 A4 d>c | c2 B2 c2 [E^c]2 | [Ad]2 [^F_e]2 B4 | %52
 [Ac]2 [^GB]2- [GB]A[FB][Dd] | [Ec]4 [DB]4 | [CA]4 [Ac]4 | [Ac]4 [Ac]4 | [Ac]4 [Ac]4- | %57
 [Ac]4 [Ec]2 [=DB]2 | A8 |] %59
V:3
 A8- | A4 A4- | A4 A4 | A2 F2 E2 D2 | (C2 A6) | A4 A4 | A4 c4- | cABc B2 A2 | [GB]4 ([G-B]4 | %9
 [G_B]2) [^FA]2 ([=F-A]4 | [F_A]2) [EG]2 [^D^F]4 | [DF]2 [CE]2 [DF]2 E2- | E2 D2 A,2 B,2 | x8 | %14
 (C2 D2 E2 A2-) | A4 ^G4 | A8- | A4 ^G4 | A E2 _E D4 | z2 E>F G2 G2 | z2 A4- A2 | G3 F x2 [Ff]2 | %22
 ^F2 x2 A4 | G4- G3 F | EFG^G A2- A2 | G4 ^F2 =F2 | x2 (C2 E2 G2) | [EG-]8 | [FG]8- | [FG-]8 | %30
 G4 A4- | A4 G4- | G4 G4 | [_E-G]4 [E^F]4 | x8 | x8 | x8 | x4 G4 | x8 | A4- A4- | A4- A4- | %41
 A4 E2 ^D2 | (ED)(DC) D4 | A8 | x8 | E4 ^F2 x2 | z8 | A E2 _E D4 | x2 E>F G2- G2 | x2 A4- A2 | %50
 G4- G2 x2 | z6 d2 | A2 x6 | z8 | x8 | x8 | x6 C2 | D2 ^D2 E2 ^F^G | C8 |] %59
V:4
 z4 E2 F2 | E^D E2 E2 F2 | E^D E2 E2 =DC | B,2 CD C2 B,2 | A,4 E,2 F,2 | E,^D, E,2 E,2 F,2 | %6
 E,^D, E,2 E,2 C2- | CA,B,C G,2 ^F,2 | E,4 z4 | z8 | z8 | z6 CA, | F,8 | E,8- | E,2 z2 z2 C2 | %15
 B,4 E4- | E2 C4 D2 | E4- E2 E,2- | E,2 ^F,2 x4 | x8 | D2 C2- C_E D2 | [G,D]4 [^G,B,]2 [A,C]2- | %22
 [A,C]2 [G,B,]2 x4 | [E,C]4 [B,,D]4 | C4- C2 D^D | E2 C2 A,2 D2 | x4 z4 | G,8- | G,8- | G,8- | %30
 G,4- G,2 E2- | E2 D2 F2 D2- | D2 C2 D4 | C4- C4 | D2 (G,2 A,2 B,2) | [C,C]4 [G,B,]4 | C4- C_EF=E | %37
 [D,D]4 [A,,^C]4 | [D,A,]8 | [F,F]4 [G,E]4 | (F3 E) D4- | D2 E2 A,4 | B,3 C (CB,)(B,A,) | (A,8 | %44
 [^D,A,B,]4) [=D,^G,B,]4 | A,2 E4- E2- | E4- E2 E,2- | E,2 x2 G,4- | G,4 x4 | D2 C2- C_E D2 | %50
 D4 z4 | [^F,A,]2 [A,C]2 [G,B,]2 [^G,F]2 | [A,E]2 [E,D]2 x2 B,A, | A,4- A,2 ^G,2 | A,4 (E,2 F,2 | %55
 E,^D, E,2 E,2 F,2) | E,^D, E,2 (E,2 C2- | CA,B,C C2 B,2) | A,8 |] %59
V:5
 x8 | A,4 x4 | G,4 x4 | F,2 D,2 E,4 | A,,4 x4 | A,,4 x4 | G,,4 x4 | ^F,,4 B,,4 | E,,4 x4 | x8 | %10
 x8 | x8 | x8 | x8 | (A,,2 B,,2 C,2 A,,2) | E,2 ^D,2 E,2 =D,2 | C,2 D,E, F,4 | E,2 ^D,2 E,4 | %18
 A,,4 ([B,,G,-]4 | [C,G,]4) [E,C]4 | F,4 ^F,4 | x8 | x8 | x8 | C,D, E,2 F,2 ^F,2 | G,4 G,,4 | %26
 [C,C]4 x4 | C,8 | D,6- D,C, | B,,8 | C,4 ^C,4 | D,4 B,,4 | C,4 _B,,4 | _A,,4- A,,4 | G,,8 | x8 | %36
 A,4- A,4 | x8 | x8 | x8 | F,4- F,4- | F,4- F,4 | E,4- E,4 | F,4 E,4 | x8 | ^C,2 =C,2 B,,4 | %46
 A,,2 C,2 E,4 | A,,4 B,,4 | C,4 [E,C]4 | F,4 ^F,4 | G,2 F,2 [E,C]2 [G,_B,]2 | z8 | x4 [F,-C]2 F,2 | %53
 E,4 E,4 | A,,4 x4 | A,,4 x4 | G,,4 z4 | (^F,2 =F,2 E,4) | [A,,E,]8 |] %59
V:6
 x8 | x8 | x8 | x8 | x8 | x8 | x8 | x8 | x8 | x8 | x8 | x8 | x8 | x8 | x8 | x8 | x8 | x8 | x8 | %19
 x8 | x8 | x8 | x8 | x8 | x8 | x8 | x8 | x8 | x8 | x8 | x8 | x8 | x8 | x8 | x8 | x8 | x8 | x8 | %38
 x8 | x8 | x8 | x8 | x8 | C2 D4 C2 | x8 | x8 | x8 | x8 | x8 | x8 | x8 | x8 | x8 | x8 | x8 | x8 | %56
 x8 | x8 | x8 |] %59

